X: 30594
T: One Horned Cow, The
R: jig
M: 6/8
K: Gmajor
Bdd edd|eed e2d|BBB dBA|GED G2A|
Bdd eee|fed e2d|BBB B2A|GED G2A||
BBB B2A|GBd eeg|B3 B2A|GED GGA|
B2A BBA|GBd eeg|BBB dBA|GED G3||

